Vector/symbolic/devices/auth-fingerprint-symbolic.svg

<svg xmlns="http://www.w3.org/2000/svg" width="16" height="16" version="1.1">
 <path style="fill:#444444" d="M 8.0722656,3.6467121e-4 A 6.996,6.9900418 0 0 0 4.5839844,0.89093552 1.0000856,0.99923392 0 1 0 5.5585938,2.63497 4.997,4.9927443 0 0 1 10.527344,2.6857482 4.996,4.9917452 0 0 1 13,6.9940799 1,0.99914835 0 0 0 13.002,7.0018899 1,0.99730355 0 0 0 13,7.0116599 V 8.009646 a 1,0.99730355 0 0 0 2,0 V 7.0116571 A 1,0.99730355 0 0 0 15,6.9940799 7.006,7.0000333 0 0 0 11.539062,0.96124374 6.993,6.9870444 0 0 0 8.0722656,3.6467121e-4 Z M 2.9550781,2.9943232 A 1,0.96465179 0 0 0 2.0566406,3.4610917 7.004,6.7564211 0 0 0 1.0058594,6.8788525 1,0.99914835 0 0 0 1,6.9413487 v 5.0582863 a 1,0.99914835 0 0 0 2,0 V 7.0292341 C 3,6.1282493 3.2628594,5.2455299 3.7558594,4.480561 A 1,0.96465179 0 0 0 2.9550781,2.9943232 Z M 8,3.0001822 c -2.198,0 -4,1.8026973 -4,3.9997568 a 1,1.0000271 0 0 0 0,0.00586 1,0.99730355 0 0 0 0,0.00586 v 0.9979861 a 1,0.99730355 0 0 0 2,0 V 7.0116571 A 1,0.99730355 0 0 0 6,6.999939 C 6,5.8839088 6.883,5.0000606 8,5.0000606 c 1.116,0 2,0.8838482 2,1.9998784 a 1,1.0000271 0 0 0 0,0.00586 1,0.99730355 0 0 0 0,0.00586 v 4.986023 c 0,0 0.0098,0.439748 0.175781,0.939396 a 4.56,4.5477042 0 0 0 1.117188,1.759659 1,0.99730355 0 1 0 1.414062,-1.410071 C 12.324031,12.905697 12.157219,12.55359 12.074219,12.306258 11.990219,12.05793 12,11.997682 12,11.997682 V 7.0116571 a 1,0.99730355 0 0 0 0,-0.011718 C 12,4.8028795 10.197,3.0001822 8,3.0001822 Z M 7.984375,5.9999998 A 1,0.99730355 0 0 0 7,7.0116571 v 4.9860249 c 0,0 -4.688e-4,0.593281 0.1445312,1.316326 0.145,0.724043 0.4124376,1.6467 1.1484376,2.380715 A 1,0.99730355 0 1 0 9.7070312,14.284652 C 9.4420312,14.021363 9.2104688,13.447946 9.1054688,12.92536 9.0004687,12.401775 9,11.997682 9,11.997682 V 7.0116571 A 1,0.99730355 0 0 0 7.984375,5.9999998 Z m -3,3.9899918 A 1,0.99730355 0 0 0 4,10.999696 v 2.992006 a 1,0.99730355 0 0 0 2,0 V 10.999696 A 1,0.99730355 0 0 0 4.984375,9.9899916 Z M 14,9.9997567 a 1,0.99993917 0 0 0 -1,0.9999393 1,0.99993917 0 0 0 1,0.999939 1,0.99993917 0 0 0 1,-0.999939 1,0.99993917 0 0 0 -1,-0.9999393 z"/>
</svg>

<svg width="16" height="16.01" version="1.1" xmlns="http://www.w3.org/2000/svg">
 <path d="m8.0723 0a6.996 6.996 0 0 0-3.4883 0.89062 1.0001 1.0001 0 0 0 0.97461 1.7461 4.997 4.997 0 0 1 4.9688 0.050781 4.996 4.996 0 0 1 2.4727 4.3125v1a1 1 0 0 0 2 0v-1a7.006 7.006 0 0 0-0.005859-0.11328 1 1 0 0 0-0.001953-0.0078126 7.006 7.006 0 0 0-3.4531-5.918 6.993 6.993 0 0 0-3.4668-0.96094zm-5.1172 2.8184a1 1 0 0 0-0.89844 0.48242 7.004 7.004 0 0 0-1.0566 3.6992v5.0625a1 1 0 0 0 2 0v-5.0625c0-0.934 0.26286-1.8496 0.75586-2.6426a1 1 0 0 0-0.80078-1.5391zm5.0449 0.18164c-2.198 0-4 1.803-4 4v1a1 1 0 0 0 2 0v-1c0-1.116 0.883-2 2-2 1.116 0 2 0.884 2 2v5s0.009781 0.44041 0.17578 0.94141a4.56 4.56 0 0 0 1.1172 1.7656 1 1 0 1 0 1.4141-1.4141c-0.383-0.382-0.54981-0.73638-0.63281-0.98438-0.084-0.249-0.074219-0.30859-0.074219-0.30859v-5c0-2.197-1.803-4-4-4zm-0.015625 2.9863a1 1 0 0 0-0.98438 1.0137v5s-4.688e-4 0.59531 0.14453 1.3203c0.145 0.726 0.41244 1.6507 1.1484 2.3867a1 1 0 1 0 1.4141-1.4141c-0.265-0.264-0.49656-0.83928-0.60156-1.3633-0.105-0.525-0.10547-0.92969-0.10547-0.92969v-5a1 1 0 0 0-1.0156-1.0137zm-3 4a1 1 0 0 0-0.98438 1.0137v3a1 1 0 0 0 2 0v-3a1 1 0 0 0-1.0156-1.0137zm9.0156 0.013672a1 1 0 0 0-1 1 1 1 0 0 0 1 1 1 1 0 0 0 1-1 1 1 0 0 0-1-1z" fill="#555555" style="font-feature-settings:normal;font-variant-alternates:normal;font-variant-caps:normal;font-variant-ligatures:normal;font-variant-numeric:normal;font-variant-position:normal;isolation:auto;mix-blend-mode:normal;shape-padding:0;text-decoration-color:#000000;text-decoration-line:none;text-decoration-style:solid;text-indent:0;text-orientation:mixed;text-transform:none"/>
</svg>
